assets/landing/frontend_features/light/react.svg

<svg xmlns="http://www.w3.org/2000/svg" width="668" height="320" fill="none" viewBox="0 0 668 320"><g clip-path="url(#a)"><circle cx="335.5" cy="260.5" r="259.5" fill="url(#b)"/><circle cx="160" cy="109" r="64" fill="url(#c)" fill-opacity=".48"/><circle cx="508" cy="109" r="64" fill="url(#d)" fill-opacity=".48"/><circle cx="68" cy="220" r="64" fill="url(#e)" fill-opacity=".48"/><circle cx="600" cy="220" r="64" fill="url(#f)" fill-opacity=".48"/><rect width="32" height="32" x="319" y="148" fill="#6E56CF" rx="8"/><path fill="#FAF8FF" d="M339 166v8h4v-8z"/><path fill="#FAF8FF" d="M327 154v20h4v-8h8v-4h-8v-4h8v4h4v-8z"/><path stroke="#6E56CF" stroke-dasharray="2 2" stroke-opacity=".48" d="M334 193.102c42.262 0 76.522-13.477 76.522-30.102s-34.26-30.103-76.522-30.103-76.521 13.478-76.521 30.103 34.259 30.102 76.521 30.102Z"/><path stroke="#6E56CF" stroke-dasharray="2 2" stroke-opacity=".48" d="M308.697 178.051c21.131 37.708 49.59 61.538 63.564 53.226 13.975-8.313 8.173-45.62-12.958-83.329s-49.589-61.538-63.564-53.226c-13.974 8.313-8.173 45.62 12.958 83.329Z"/><path stroke="#6E56CF" stroke-dasharray="2 2" stroke-opacity=".48" d="M308.697 147.948c-21.131 37.709-26.932 75.016-12.958 83.329 13.975 8.312 42.433-15.518 63.564-53.226 21.131-37.709 26.933-75.016 12.958-83.328-13.974-8.313-42.433 15.517-63.564 53.225Z"/><path stroke="url(#g)" d="M188 109c74.137 0 38.868 56 131 56"/><path stroke="url(#h)" d="M319 165c-92.132 0-56.863 56-131 56H96"/><path stroke="url(#i)" d="M480 109c-73.005 0-38.275 56-129 56"/><path stroke="url(#j)" d="M351 165c90.725 0 55.995 56 129 56h92"/><g filter="url(#k)"><g clip-path="url(#l)"><rect width="56" height="56" x="132" y="80" fill="#F9F9FB" fill-opacity=".48" rx="16"/><path fill="#CDCED6" d="M150 93h20.28v10.14h-10.14zm0 10.14h10.14l10.14 10.14H150zm0 10.14h10.14v10.14z"/></g><rect width="55" height="55" x="132.5" y="80.5" stroke="#E8E8EC" rx="15.5"/></g><g filter="url(#m)"><rect width="56" height="56" x="480" y="81" fill="#F9F9FB" fill-opacity=".48" rx="16"/><rect width="55" height="55" x="480.5" y="81.5" stroke="#E8E8EC" rx="15.5"/><g fill="#CDCED6" clip-path="url(#n)"><path d="M522.799 109.281c0-1.229-.1-2.126-.316-3.056h-14.035v5.547h8.238c-.166 1.379-1.062 3.455-3.056 4.85l-.028.186 4.438 3.437.307.031c2.824-2.608 4.452-6.444 4.452-10.995"/><path d="M508.449 123.897c4.036 0 7.424-1.329 9.899-3.621l-4.717-3.654c-1.262.88-2.957 1.495-5.182 1.495-3.953 0-7.308-2.608-8.504-6.212l-.176.015-4.614 3.571-.06.168c2.458 4.883 7.507 8.238 13.354 8.238"/><path d="M499.944 111.905a9.2 9.2 0 0 1-.498-2.957 9.7 9.7 0 0 1 .482-2.956l-.009-.198-4.672-3.629-.153.073a15 15 0 0 0-1.594 6.71c0 2.409.581 4.684 1.594 6.711z"/><path d="M508.449 99.78c2.807 0 4.7 1.213 5.78 2.226l4.219-4.12c-2.591-2.408-5.963-3.886-9.999-3.886-5.847 0-10.896 3.355-13.354 8.238l4.833 3.754c1.213-3.604 4.568-6.212 8.521-6.212"/></g></g><g filter="url(#o)"><rect width="56" height="56" x="40" y="192" fill="#F9F9FB" fill-opacity=".48" rx="16"/><rect width="55" height="55" x="40.5" y="192.5" stroke="#E8E8EC" rx="15.5"/><path fill="#CDCED6" d="M84.25 211.25h-4.375v5h4.375z"/><path fill="#CDCED6" d="M84.25 211.25H73.625l-5 5H84.25zm-9.375 7.5H70.5v5h4.375z"/><path fill="#CDCED6" d="M74.875 223.75v-4.997h-8.75l-5.005 4.997zm-7.5 2.5H63v5h4.375z"/><path fill="#CDCED6" d="m56.125 228.756 2.5-2.506h8.75v5h-11.25zm17.5-17.506-2.5 2.5h-16.25v-5h18.75zM58 221.25h5.625l5-5H58zm-6.25 7.493 4.375.007 4.995-5-9.37-.029z"/></g><g filter="url(#p)"><rect width="56" height="56" x="572" y="192" fill="#F9F9FB" fill-opacity=".48" rx="16"/><rect width="55" height="55" x="572.5" y="192.5" stroke="#E8E8EC" rx="15.5"/><g clip-path="url(#q)"><path fill="#CDCED6" fill-rule="evenodd" d="M600 204c8.837 0 16 7.163 16 16s-7.163 16-16 16-16-7.163-16-16 7.163-16 16-16m3.388 6.074-10.318 10.749c-.149.156-.044.423.166.423h7.022c.192 0 .304.229.191.392l-5.506 7.967c-.167.242.143.53.352.326l11.63-11.386c.156-.153.053-.428-.161-.428h-6.637c-.178 0-.292-.201-.206-.366l3.84-7.383c.13-.25-.18-.495-.373-.294" clip-rule="evenodd"/></g></g><path fill="url(#r)" d="M0 0h668v140H0z" transform="translate(0 180)"/></g><defs><radialGradient id="b" cx="0" cy="0" r="1" gradientTransform="rotate(90 37.5 298)scale(259.5)" gradientUnits="userSpaceOnUse"><stop stop-color="#F4F0FE"/><stop offset="1" stop-color="#F9F9FB" stop-opacity="0"/></radialGradient><radialGradient id="c" cx="0" cy="0" r="1" gradientTransform="matrix(0 64 -64 0 160 109)" gradientUnits="userSpaceOnUse"><stop stop-color="#F4F0FE"/><stop offset="1" stop-color="#F9F9FB" stop-opacity="0"/></radialGradient><radialGradient id="d" cx="0" cy="0" r="1" gradientTransform="matrix(0 64 -64 0 508 109)" gradientUnits="userSpaceOnUse"><stop stop-color="#F4F0FE"/><stop offset="1" stop-color="#F9F9FB" stop-opacity="0"/></radialGradient><radialGradient id="e" cx="0" cy="0" r="1" gradientTransform="matrix(0 64 -64 0 68 220)" gradientUnits="userSpaceOnUse"><stop stop-color="#F4F0FE"/><stop offset="1" stop-color="#F9F9FB" stop-opacity="0"/></radialGradient><radialGradient id="f" cx="0" cy="0" r="1" gradientTransform="matrix(0 64 -64 0 600 220)" gradientUnits="userSpaceOnUse"><stop stop-color="#F4F0FE"/><stop offset="1" stop-color="#F9F9FB" stop-opacity="0"/></radialGradient><linearGradient id="g" x1="188" x2="319" y1="137" y2="137" gradientUnits="userSpaceOnUse"><stop offset=".3" stop-color="#E8E8EC"/><stop offset="1" stop-color="#6E56CF"/></linearGradient><linearGradient id="h" x1="96" x2="319" y1="193" y2="193" gradientUnits="userSpaceOnUse"><stop offset=".3" stop-color="#E8E8EC"/><stop offset="1" stop-color="#6E56CF"/></linearGradient><linearGradient id="i" x1="480" x2="351" y1="137" y2="137" gradientUnits="userSpaceOnUse"><stop offset=".3" stop-color="#E8E8EC"/><stop offset="1" stop-color="#6E56CF"/></linearGradient><linearGradient id="j" x1="572" x2="351" y1="193" y2="193" gradientUnits="userSpaceOnUse"><stop offset=".3" stop-color="#E8E8EC"/><stop offset="1" stop-color="#6E56CF"/></linearGradient><linearGradient id="r" x1="334" x2="334" y1="0" y2="140" gradientUnits="userSpaceOnUse"><stop stop-color="#F9F9FB" stop-opacity="0"/><stop offset=".639" stop-color="#F9F9FB"/></linearGradient><clipPath id="a"><path fill="#fff" d="M0 0h668v320H0z"/></clipPath><clipPath id="l"><rect width="56" height="56" x="132" y="80" fill="#fff" rx="16"/></clipPath><clipPath id="n"><path fill="#fff" d="M493.5 94h29.313v30H493.5z"/></clipPath><clipPath id="q"><path fill="#fff" d="M584 204h32v32h-32z"/></clipPath><filter id="k" width="80" height="80" x="120" y="68" color-interpolation-filters="sRGB" filterUnits="userSpaceOnUse"><feFlood flood-opacity="0" result="BackgroundImageFix"/><feGaussianBlur in="BackgroundImageFix" stdDeviation="6"/><feComposite in2="SourceAlpha" operator="in" result="effect1_backgroundBlur_11133_3092"/><feBlend in="SourceGraphic" in2="effect1_backgroundBlur_11133_3092" result="shape"/></filter><filter id="m" width="80" height="80" x="468" y="69" color-interpolation-filters="sRGB" filterUnits="userSpaceOnUse"><feFlood flood-opacity="0" result="BackgroundImageFix"/><feGaussianBlur in="BackgroundImageFix" stdDeviation="6"/><feComposite in2="SourceAlpha" operator="in" result="effect1_backgroundBlur_11133_3092"/><feBlend in="SourceGraphic" in2="effect1_backgroundBlur_11133_3092" result="shape"/></filter><filter id="o" width="80" height="80" x="28" y="180" color-interpolation-filters="sRGB" filterUnits="userSpaceOnUse"><feFlood flood-opacity="0" result="BackgroundImageFix"/><feGaussianBlur in="BackgroundImageFix" stdDeviation="6"/><feComposite in2="SourceAlpha" operator="in" result="effect1_backgroundBlur_11133_3092"/><feBlend in="SourceGraphic" in2="effect1_backgroundBlur_11133_3092" result="shape"/></filter><filter id="p" width="80" height="80" x="560" y="180" color-interpolation-filters="sRGB" filterUnits="userSpaceOnUse"><feFlood flood-opacity="0" result="BackgroundImageFix"/><feGaussianBlur in="BackgroundImageFix" stdDeviation="6"/><feComposite in2="SourceAlpha" operator="in" result="effect1_backgroundBlur_11133_3092"/><feBlend in="SourceGraphic" in2="effect1_backgroundBlur_11133_3092" result="shape"/></filter></defs></svg>

<svg width="668" height="320" viewBox="0 0 668 320" fill="none" xmlns="http://www.w3.org/2000/svg">
<g clip-path="url(#clip0_11133_3092)">
<circle cx="335.5" cy="260.5" r="259.5" fill="url(#paint0_radial_11133_3092)"/>
<circle cx="160" cy="109" r="64" fill="url(#paint1_radial_11133_3092)" fill-opacity="0.48"/>
<circle cx="508" cy="109" r="64" fill="url(#paint2_radial_11133_3092)" fill-opacity="0.48"/>
<circle cx="68" cy="220" r="64" fill="url(#paint3_radial_11133_3092)" fill-opacity="0.48"/>
<circle cx="600" cy="220" r="64" fill="url(#paint4_radial_11133_3092)" fill-opacity="0.48"/>
<rect x="319" y="148" width="32" height="32" rx="8" fill="#6E56CF"/>
<path d="M339 166V174H343V166H339Z" fill="#FAF8FF"/>
<path d="M327 154V174H331V166H339V162H331V158H339V162H343V154H327Z" fill="#FAF8FF"/>
<path d="M334 193.102C376.262 193.102 410.522 179.625 410.522 163C410.522 146.375 376.262 132.897 334 132.897C291.738 132.897 257.479 146.375 257.479 163C257.479 179.625 291.738 193.102 334 193.102Z" stroke="#6E56CF" stroke-opacity="0.48" stroke-dasharray="2 2"/>
<path d="M308.697 178.051C329.828 215.759 358.287 239.589 372.261 231.277C386.236 222.964 380.434 185.657 359.303 147.948C338.172 110.24 309.714 86.41 295.739 94.7225C281.765 103.035 287.566 140.342 308.697 178.051Z" stroke="#6E56CF" stroke-opacity="0.48" stroke-dasharray="2 2"/>
<path d="M308.697 147.948C287.566 185.657 281.765 222.964 295.739 231.277C309.714 239.589 338.172 215.759 359.303 178.051C380.434 140.342 386.236 103.035 372.261 94.7225C358.287 86.41 329.828 110.24 308.697 147.948Z" stroke="#6E56CF" stroke-opacity="0.48" stroke-dasharray="2 2"/>
<path d="M188 109C262.137 109 226.868 165 319 165" stroke="url(#paint5_linear_11133_3092)"/>
<path d="M319 165C226.868 165 262.137 221 188 221H96" stroke="url(#paint6_linear_11133_3092)"/>
<path d="M480 109C406.995 109 441.725 165 351 165" stroke="url(#paint7_linear_11133_3092)"/>
<path d="M351 165C441.725 165 406.995 221 480 221H572" stroke="url(#paint8_linear_11133_3092)"/>
<g filter="url(#filter0_b_11133_3092)">
<g clip-path="url(#clip1_11133_3092)">
<rect x="132" y="80" width="56" height="56" rx="16" fill="#F9F9FB" fill-opacity="0.48"/>
<path d="M150 93H170.28V103.14H160.14L150 93ZM150 103.14H160.14L170.28 113.28H150V103.14ZM150 113.28H160.14V123.42L150 113.28Z" fill="#CDCED6"/>
</g>
<rect x="132.5" y="80.5" width="55" height="55" rx="15.5" stroke="#E8E8EC"/>
</g>
<g filter="url(#filter1_b_11133_3092)">
<rect x="480" y="81" width="56" height="56" rx="16" fill="#F9F9FB" fill-opacity="0.48"/>
<rect x="480.5" y="81.5" width="55" height="55" rx="15.5" stroke="#E8E8EC"/>
<g clip-path="url(#clip2_11133_3092)">
<path d="M522.799 109.281C522.799 108.052 522.699 107.155 522.483 106.225H508.448V111.772H516.686C516.52 113.151 515.624 115.227 513.63 116.622L513.602 116.808L518.04 120.245L518.347 120.276C521.171 117.668 522.799 113.832 522.799 109.281Z" fill="#CDCED6"/>
<path d="M508.449 123.897C512.485 123.897 515.873 122.568 518.348 120.276L513.631 116.622C512.369 117.502 510.674 118.117 508.449 118.117C504.496 118.117 501.141 115.509 499.945 111.905L499.769 111.92L495.155 115.491L495.095 115.659C497.553 120.542 502.602 123.897 508.449 123.897Z" fill="#CDCED6"/>
<path d="M499.944 111.905C499.629 110.975 499.446 109.978 499.446 108.948C499.446 107.919 499.629 106.922 499.928 105.992L499.919 105.794L495.247 102.165L495.094 102.238C494.081 104.265 493.5 106.54 493.5 108.948C493.5 111.357 494.081 113.632 495.094 115.659L499.944 111.905Z" fill="#CDCED6"/>
<path d="M508.449 99.78C511.256 99.78 513.149 100.993 514.229 102.006L518.448 97.8866C515.857 95.4782 512.485 94 508.449 94C502.602 94 497.553 97.3551 495.095 102.238L499.928 105.992C501.141 102.388 504.496 99.78 508.449 99.78Z" fill="#CDCED6"/>
</g>
</g>
<g filter="url(#filter2_b_11133_3092)">
<rect x="40" y="192" width="56" height="56" rx="16" fill="#F9F9FB" fill-opacity="0.48"/>
<rect x="40.5" y="192.5" width="55" height="55" rx="15.5" stroke="#E8E8EC"/>
<path d="M84.25 211.25H79.875V216.25H84.25V211.25Z" fill="#CDCED6"/>
<path d="M84.25 211.25H73.625L68.625 216.25H84.25V211.25Z" fill="#CDCED6"/>
<path d="M74.875 218.75H70.5V223.75H74.875V218.75Z" fill="#CDCED6"/>
<path d="M74.8751 223.75V218.753H66.1251L61.1201 223.75H74.8751Z" fill="#CDCED6"/>
<path d="M67.375 226.25H63V231.25H67.375V226.25Z" fill="#CDCED6"/>
<path d="M56.125 228.756L58.625 226.25H67.375V231.25H56.125V228.756Z" fill="#CDCED6"/>
<path d="M73.625 211.25L71.125 213.75H54.875V208.75H73.625V211.25Z" fill="#CDCED6"/>
<path d="M58 221.25H63.625L68.625 216.25H58V221.25Z" fill="#CDCED6"/>
<path d="M51.75 228.743L56.125 228.75L61.12 223.75L51.75 223.721V228.743Z" fill="#CDCED6"/>
</g>
<g filter="url(#filter3_b_11133_3092)">
<rect x="572" y="192" width="56" height="56" rx="16" fill="#F9F9FB" fill-opacity="0.48"/>
<rect x="572.5" y="192.5" width="55" height="55" rx="15.5" stroke="#E8E8EC"/>
<g clip-path="url(#clip3_11133_3092)">
<path fill-rule="evenodd" clip-rule="evenodd" d="M600 204C608.837 204 616 211.163 616 220C616 228.837 608.837 236 600 236C591.163 236 584 228.837 584 220C584 211.163 591.163 204 600 204ZM603.388 210.074L593.07 220.823C592.921 220.979 593.026 221.246 593.236 221.246H600.258C600.45 221.246 600.562 221.475 600.449 221.638L594.943 229.605C594.776 229.847 595.086 230.135 595.295 229.931L606.925 218.545C607.081 218.392 606.978 218.117 606.764 218.117H600.127C599.949 218.117 599.835 217.916 599.921 217.751L603.761 210.368C603.891 210.118 603.581 209.873 603.388 210.074Z" fill="#CDCED6"/>
</g>
</g>
<rect width="668" height="140" transform="translate(0 180)" fill="url(#paint9_linear_11133_3092)"/>
</g>
<defs>
<filter id="filter0_b_11133_3092" x="120" y="68" width="80" height="80" filterUnits="userSpaceOnUse" color-interpolation-filters="sRGB">
<feFlood flood-opacity="0" result="BackgroundImageFix"/>
<feGaussianBlur in="BackgroundImageFix" stdDeviation="6"/>
<feComposite in2="SourceAlpha" operator="in" result="effect1_backgroundBlur_11133_3092"/>
<feBlend mode="normal" in="SourceGraphic" in2="effect1_backgroundBlur_11133_3092" result="shape"/>
</filter>
<filter id="filter1_b_11133_3092" x="468" y="69" width="80" height="80" filterUnits="userSpaceOnUse" color-interpolation-filters="sRGB">
<feFlood flood-opacity="0" result="BackgroundImageFix"/>
<feGaussianBlur in="BackgroundImageFix" stdDeviation="6"/>
<feComposite in2="SourceAlpha" operator="in" result="effect1_backgroundBlur_11133_3092"/>
<feBlend mode="normal" in="SourceGraphic" in2="effect1_backgroundBlur_11133_3092" result="shape"/>
</filter>
<filter id="filter2_b_11133_3092" x="28" y="180" width="80" height="80" filterUnits="userSpaceOnUse" color-interpolation-filters="sRGB">
<feFlood flood-opacity="0" result="BackgroundImageFix"/>
<feGaussianBlur in="BackgroundImageFix" stdDeviation="6"/>
<feComposite in2="SourceAlpha" operator="in" result="effect1_backgroundBlur_11133_3092"/>
<feBlend mode="normal" in="SourceGraphic" in2="effect1_backgroundBlur_11133_3092" result="shape"/>
</filter>
<filter id="filter3_b_11133_3092" x="560" y="180" width="80" height="80" filterUnits="userSpaceOnUse" color-interpolation-filters="sRGB">
<feFlood flood-opacity="0" result="BackgroundImageFix"/>
<feGaussianBlur in="BackgroundImageFix" stdDeviation="6"/>
<feComposite in2="SourceAlpha" operator="in" result="effect1_backgroundBlur_11133_3092"/>
<feBlend mode="normal" in="SourceGraphic" in2="effect1_backgroundBlur_11133_3092" result="shape"/>
</filter>
<radialGradient id="paint0_radial_11133_3092" cx="0" cy="0" r="1" gradientUnits="userSpaceOnUse" gradientTransform="translate(335.5 260.5) rotate(90) scale(259.5)">
<stop stop-color="#F4F0FE"/>
<stop offset="1" stop-color="#F9F9FB" stop-opacity="0"/>
</radialGradient>
<radialGradient id="paint1_radial_11133_3092" cx="0" cy="0" r="1" gradientUnits="userSpaceOnUse" gradientTransform="translate(160 109) rotate(90) scale(64)">
<stop stop-color="#F4F0FE"/>
<stop offset="1" stop-color="#F9F9FB" stop-opacity="0"/>
</radialGradient>
<radialGradient id="paint2_radial_11133_3092" cx="0" cy="0" r="1" gradientUnits="userSpaceOnUse" gradientTransform="translate(508 109) rotate(90) scale(64)">
<stop stop-color="#F4F0FE"/>
<stop offset="1" stop-color="#F9F9FB" stop-opacity="0"/>
</radialGradient>
<radialGradient id="paint3_radial_11133_3092" cx="0" cy="0" r="1" gradientUnits="userSpaceOnUse" gradientTransform="translate(68 220) rotate(90) scale(64)">
<stop stop-color="#F4F0FE"/>
<stop offset="1" stop-color="#F9F9FB" stop-opacity="0"/>
</radialGradient>
<radialGradient id="paint4_radial_11133_3092" cx="0" cy="0" r="1" gradientUnits="userSpaceOnUse" gradientTransform="translate(600 220) rotate(90) scale(64)">
<stop stop-color="#F4F0FE"/>
<stop offset="1" stop-color="#F9F9FB" stop-opacity="0"/>
</radialGradient>
<linearGradient id="paint5_linear_11133_3092" x1="188" y1="137" x2="319" y2="137" gradientUnits="userSpaceOnUse">
<stop offset="0.3" stop-color="#E8E8EC"/>
<stop offset="1" stop-color="#6E56CF"/>
</linearGradient>
<linearGradient id="paint6_linear_11133_3092" x1="96" y1="193" x2="319" y2="193" gradientUnits="userSpaceOnUse">
<stop offset="0.3" stop-color="#E8E8EC"/>
<stop offset="1" stop-color="#6E56CF"/>
</linearGradient>
<linearGradient id="paint7_linear_11133_3092" x1="480" y1="137" x2="351" y2="137" gradientUnits="userSpaceOnUse">
<stop offset="0.3" stop-color="#E8E8EC"/>
<stop offset="1" stop-color="#6E56CF"/>
</linearGradient>
<linearGradient id="paint8_linear_11133_3092" x1="572" y1="193" x2="351" y2="193" gradientUnits="userSpaceOnUse">
<stop offset="0.3" stop-color="#E8E8EC"/>
<stop offset="1" stop-color="#6E56CF"/>
</linearGradient>
<linearGradient id="paint9_linear_11133_3092" x1="334" y1="0" x2="334" y2="140" gradientUnits="userSpaceOnUse">
<stop stop-color="#F9F9FB" stop-opacity="0"/>
<stop offset="0.638983" stop-color="#F9F9FB"/>
</linearGradient>
<clipPath id="clip0_11133_3092">
<rect width="668" height="320" fill="white"/>
</clipPath>
<clipPath id="clip1_11133_3092">
<rect x="132" y="80" width="56" height="56" rx="16" fill="white"/>
</clipPath>
<clipPath id="clip2_11133_3092">
<rect width="29.313" height="30" fill="white" transform="translate(493.5 94)"/>
</clipPath>
<clipPath id="clip3_11133_3092">
<rect width="32" height="32" fill="white" transform="translate(584 204)"/>
</clipPath>
</defs>
</svg>
